abel/img/sprite/facebook.svg

<svg width="41" height="41" viewBox="0 0 41 41" fill="none" xmlns="http://www.w3.org/2000/svg">
<g clip-path="url(#clip0)">
<path fill-rule="evenodd" clip-rule="evenodd" d="M0 20.23C0 30.2318 7.26415 38.5488 16.7647 40.2353V25.7053H11.7353V20.1176H16.7647V15.6465C16.7647 10.6171 20.0053 7.82409 24.5888 7.82409C26.0406 7.82409 27.6064 8.04706 29.0583 8.27003V13.4118H26.4882C24.0289 13.4118 23.4706 14.6406 23.4706 16.2064V20.1176H28.8353L27.9417 25.7053H23.4706V40.2353C32.9711 38.5488 40.2353 30.2335 40.2353 20.23C40.2353 9.10324 31.1824 0 20.1176 0C9.05294 0 0 9.10324 0 20.23Z" fill="white"/>
</g>
<defs>
<clipPath id="clip0">
<rect width="40.2353" height="40.2353" fill="white"/>
</clipPath>
</defs>
</svg>

<svg width="41" height="41" fill="none" xmlns="http://www.w3.org/2000/svg"><g clip-path="url(#clip0)"><path fill-rule="evenodd" clip-rule="evenodd" d="M0 20.23c0 10.002 7.264 18.319 16.765 20.005v-14.53h-5.03v-5.587h5.03v-4.471c0-5.03 3.24-7.823 7.824-7.823 1.452 0 3.017.223 4.47.446v5.142h-2.57c-2.46 0-3.018 1.229-3.018 2.794v3.912h5.364l-.893 5.587H23.47v14.53c9.5-1.686 16.764-10.002 16.764-20.005C40.235 9.103 31.182 0 20.118 0 9.053 0 0 9.103 0 20.23z" fill="#fff"/></g><defs><clipPath id="clip0"><path fill="#fff" d="M0 0h40.235v40.235H0z"/></clipPath></defs></svg>
